Plastika/img/кавычки.svg

<svg width="36" height="27" viewBox="0 0 36 27" fill="none" xmlns="http://www.w3.org/2000/svg">
<path d="M2.06166 25.9686L0.995538 23.6639C2.66105 22.905 4.02106 21.605 4.9861 20.117C6.04392 18.4859 6.64962 16.5947 6.64962 14.8724V14.3724H6.14962H0.816284V0.789062H14.3748V11.0676C14.3748 18.9803 9.31053 24.3849 2.06166 25.9686ZM22.4782 25.9687L21.411 23.6639C23.077 22.905 24.4374 21.605 25.4026 20.117C26.4606 18.486 27.0663 16.5947 27.0663 14.8724V14.3724H26.5663H21.2577V0.789062H34.8163V11.0676C34.8163 18.9794 29.729 24.3862 22.4782 25.9687Z" stroke="white"/>
</svg>

<svg width="36" height="27" fill="none" xmlns="http://www.w3.org/2000/svg"><path d="M2.062 25.969L.996 23.664c1.665-.759 3.025-2.059 3.99-3.547 1.058-1.631 1.664-3.522 1.664-5.245v-.5H.816V.79h13.559v10.279c0 7.912-5.064 13.317-12.313 14.9zm20.416 0l-1.067-2.305c1.666-.759 3.026-2.059 3.992-3.547 1.058-1.631 1.663-3.522 1.663-5.245v-.5h-5.808V.79h13.558v10.279c0 7.911-5.087 13.318-12.338 14.9z" stroke="#fff"/></svg>
